X:1
T:Title
%%score { ( 1 4 ) | ( 2 3 ) }
L:1/8
Q:1/4=100
M:4/4
K:D
V:1 treble nm="Grand Piano"
V:4 treble 
V:2 bass 
V:3 bass 
V:1
 [FA]3 [FA] [=F^G][^FA][=GB][FA] | [FA]2 [Fd]4 [FA][Fd] | [Ac]3 [GB] [FA]2 [EG]2 |[M:3/4] [DF]6 | %4
w: N.~S.~Howard * * * * *||||
[M:1/4] [DF][FA] |[M:4/4] [Fd]3 [Fd] [Ge]2 [Fd]2 | [DAc]2 [DGB]4 [DGc][DGB] | %7
w: |||
 [DFA]3 [FA] [EG]2 C2 |[M:3/4] D6 |[M:1/4] A[Fd] |[M:4/4] z [Ec]3- [Ec] z z2 | z [FA]3- [FA] z z2 | %12
w: |||||
 [CEG]3 [CE] [A,CA]2 [A,EG]2 |[M:3/4] [F,DF]6 |[M:1/4] [A,DF][A,FA] |[M:4/4] z4 z2 [Fd]2 | %16
w: ||||
 c2 B4 cB | z4 z2 c2 |[M:3/4] [Fd]6 |] %19
w: |||
V:2
 [D,D]3 [D,D] [D,D][D,D][D,D][D,D] | [D,D]2 [D,A,]4 [D,A,][D,A,] | %2
 [A,,A,]3 [A,,A,] [A,,A,]2 [A,,A,]2 |[M:3/4] [D,A,]6 |[M:1/4] [D,A,][D,A,] |[M:4/4] z4 z2 .A,2 | %6
 G,2 G,4 G,,G,, | A,,3 [A,,A,] [A,,A,]2 [A,,G,A,]2 |[M:3/4] [D,F,A,]6 |[M:1/4] [D,A,D][D,A,] | %10
[M:4/4] A,A,A,,A,, A,,A,,A,,A,, | D,D,D,D, D,D,D,D, | A,3 A, A,,2 A,,2 |[M:3/4] D,6 |[M:1/4] D,D, | %15
[M:4/4] [D,A,]3 [D,A,] [C,A,]2 .[D,A,]2 | [G,DA]2 [G,DG]4 [G,DG][G,DG] | %17
 [A,DF]3 [A,DF] [A,CG]2[K:bass] [A,,A,]2 |[M:3/4] [D,A,]6 |] %19
V:3
 x8 | x8 | x8 |[M:3/4] x6 |[M:1/4] x2 |[M:4/4] [D,A,]3 [D,A,] [C,A,]2 D,-[D,D] | x8 | x8 | %8
[M:3/4] x6 |[M:1/4] x2 |[M:4/4] x8 | x8 | x8 |[M:3/4] x6 |[M:1/4] x2 |[M:4/4] x8 | x8 | %17
 x6[K:bass] x2 |[M:3/4] x6 |] %19
V:4
 x8 | x8 | x8 |[M:3/4] x6 |[M:1/4] x2 |[M:4/4] x8 | x8 | x8 |[M:3/4] x6 |[M:1/4] x2 | %10
[M:4/4] .[Fd]2 A,A, A,A,[CEG][CGB] | [DGB]DDD DD[DGB][DFA] | x8 |[M:3/4] x6 |[M:1/4] x2 | %15
[M:4/4] [Fd]3 [Fd] [Ge]2 z D | x8 | A3 A B2 (3EFG |[M:3/4] x6 |] %19

